neru-dark-classic/22x22/actions/document-open-recent-symbolic.svg

<?xml version="1.0" encoding="UTF-8" standalone="no"?>
<svg
   xmlns:dc="http://purl.org/dc/elements/1.1/"
   xmlns:cc="http://creativecommons.org/ns#"
   xmlns:rdf="http://www.w3.org/1999/02/22-rdf-syntax-ns#"
   xmlns:svg="http://www.w3.org/2000/svg"
   xmlns="http://www.w3.org/2000/svg"
   xmlns:sodipodi="http://sodipodi.sourceforge.net/DTD/sodipodi-0.dtd"
   xmlns:inkscape="http://www.inkscape.org/namespaces/inkscape"
   width="22"
   height="22"
   viewBox="0 0 22 22"
   version="1.1"
   id="svg7"
   sodipodi:docname="document-open-recent-symbolic.svg"
   inkscape:version="0.92.1 r">
  <metadata
     id="metadata11">
    <rdf:RDF>
      <cc:Work
         rdf:about="">
        <dc:format>image/svg+xml</dc:format>
        <dc:type
           rdf:resource="http://purl.org/dc/dcmitype/StillImage" />
        <dc:title></dc:title>
      </cc:Work>
    </rdf:RDF>
  </metadata>
  <sodipodi:namedview
     pagecolor="#ffffff"
     bordercolor="#666666"
     borderopacity="1"
     objecttolerance="10"
     gridtolerance="10"
     guidetolerance="10"
     inkscape:pageopacity="0"
     inkscape:pageshadow="2"
     inkscape:window-width="769"
     inkscape:window-height="480"
     id="namedview9"
     showgrid="false"
     inkscape:zoom="10.727273"
     inkscape:cx="11"
     inkscape:cy="11"
     inkscape:window-x="0"
     inkscape:window-y="0"
     inkscape:window-maximized="0"
     inkscape:current-layer="svg7" />
  <defs
     id="defs3">
    <style
       type="text/css"
       id="current-color-scheme">
   .ColorScheme-Text { color:#d3dae3; } .ColorScheme-Highlight { color:#5294e2; }
  </style>
  </defs>
  <path
     style="fill:currentColor;opacity:1"
     class="ColorScheme-Text"
     transform="translate(3 3)"
     d="M 8 1 C 6.20855 1 4.4176312 1.6839313 3.0507812 3.0507812 C 0.31708125 5.7844812 0.31708125 10.215519 3.0507812 12.949219 C 5.7844812 15.682919 10.215519 15.682919 12.949219 12.949219 C 15.682919 10.215519 15.682919 5.7844812 12.949219 3.0507812 C 11.582369 1.6839313 9.79145 1 8 1 z M 7.9277344 3 A 5 5 0 0 1 11.535156 4.4648438 A 5 5 0 0 1 11.535156 11.535156 A 5 5 0 0 1 4.4648438 11.535156 A 5 5 0 0 1 4.4648438 4.4648438 A 5 5 0 0 1 7.9277344 3 z M 6.9960938 4 L 6.9960938 4.1328125 L 6.9960938 8.4140625 L 8.703125 10.121094 L 9.3183594 10.736328 L 9.4101562 10.828125 L 10.117188 10.121094 L 10.824219 9.4140625 L 10.730469 9.3203125 L 10.117188 8.7070312 L 8.9960938 7.5859375 L 8.9960938 4.1328125 L 8.9960938 4 L 6.9960938 4 z"
     id="path5" />
</svg>

<svg xmlns="http://www.w3.org/2000/svg" width="22" height="22" version="1.1" id="svg7"><defs id="defs3"><style type="text/css" id="current-color-scheme"></style></defs><path transform="translate(3 3)" d="M8 1a6.999 6.999 0 0 0-4.95 11.95 6.999 6.999 0 0 0 9.9 0A6.999 6.999 0 0 0 8 1zm-.072 2a5 5 0 0 1 3.607 1.465 5 5 0 0 1 0 7.07 5 5 0 0 1-7.07 0 5 5 0 0 1 0-7.07A5 5 0 0 1 7.928 3zm-.932 1v4.414l1.707 1.707.615.615.092.092.707-.707.707-.707-.094-.094-.613-.613-1.12-1.121V4h-2z" id="path5" fill="currentColor" opacity="1" color="#d3dae3"/></svg>
